X:8932
T:La Gallegada
R:Gallegada
C:Tradicional
S:Música Tradicional Asturiana, (C) Tello & Tito. Asturies, 2001.
S:http://pagina.de/MusTradAst <telloytito@asturies.org>
A:Asturies
B:Musicología Asturiana - La Canción Tradicional, Modesto González Cobas
Z:La Canción Tradicional, M.G.C.
M:2/4
L:1/8
Q:1/4=100
W:tú dices que la mi puerta que no me la rondas más
W:y aunque tú no me la rondes y otró me la rondará
W:y aunque tú no me la rondes y otró me la rondará
K:F
|BB BB|_A_G AF|BB BB|_A_G A>G|F4|
|: _A2 F2|_G_A GF|_E2 E2|_A2 F2|_GB _AG|F4-|F4 :|


